X:1
T:Title
%%score { ( 1 3 ) | ( 2 4 ) }
L:1/8
Q:1/4=110
M:4/4
K:Db
V:1 treble nm="Grand Piano"
V:3 treble 
V:2 bass 
V:4 bass 
V:1
 [Fd]4 [Gc]2 [DAd]2 | [DGB]2 [A,DA]2 [A,CG]2 [A,DF]2 | [DF]4[K:bass] [CE]2- [G,CE]2 | D6 z2 | %4
w: Robbert~Harkness * *||||
 F4 F2 E2 | A2 B2 [Gc]2 [Fd]2 | c4 B4 | A8 | [Fd]4 [Gc]2 [DAd]2 | [DGB]2 [A,DA]2 [A,CG]2 [A,DF]2 | %10
w: ||||||
 z4[K:bass] [CE]4 | D6 z2 | D4 C2 D2 | [DA]2 [F,D]2 [A,EG]2 [A,DF]2 | [G,DE]4 [G,CE]4 | %15
w: |||||
 [F,D]6 z2 |] %16
w: |
V:2
 [D,A,]4 [E,A,]2 F,2 | G,2 F,2 E,2 F,G, | A,4 A,,4 | [D,F,]6 z2 | [D,A,D]4 [A,C]2 [G,A,C]2 | %5
 [F,A,D]2 [G,D]2 [E,A,]2 [D,A,]2 | [A,E]2 C2 z2 D2 | A,4 A,,4 | [D,A,]4 [E,A,]2 F,2 | %9
 G,2 F,2 E,2 F,G, | A,4 A,,4 | [B,,F,]6 z2 | [E,=G,B,]4 [E,G,=A,]2 [E,G,B,]2 | %13
 [A,,F,]2 A,,2 A,,2 A,,2 | B,,4 A,,4 | D,6 z2 |] %16
V:3
 x8 | x8 | z4[K:bass] A,2 z2 | x8 | x8 | x8 | z2 A2 [EA]2 =G2 | [CE]4 [A,G]4 | x8 | x8 | %10
 [DF]4[K:bass] A,2 G,2 | x8 | x8 | x8 | x8 | x8 |] %16
V:4
 x8 | x8 | x8 | x8 | x8 | x8 | E,4 E,4 | x8 | x8 | x8 | x8 | x8 | x8 | x8 | x8 | x8 |] %16

